docs/img/youtube.svg

<svg width="18" height="12" viewBox="0 0 18 12" fill="none" xmlns="http://www.w3.org/2000/svg">
<path d="M8.85665 0H8.95456C9.85882 0.00320313 14.4406 0.0352346 15.676 0.357683C16.0494 0.456093 16.3898 0.647911 16.6629 0.913969C16.9361 1.18003 17.1325 1.51101 17.2326 1.87383C17.3437 2.27956 17.4218 2.81662 17.4746 3.37076L17.4856 3.4818L17.5098 3.75941L17.5186 3.87045C17.5901 4.84634 17.5989 5.7603 17.6 5.95996V6.04004C17.5989 6.24718 17.589 7.22306 17.5098 8.23952L17.501 8.35163L17.4911 8.46268C17.4361 9.07341 17.3547 9.67986 17.2326 10.1262C17.1328 10.4891 16.9365 10.8203 16.6633 11.0864C16.3901 11.3525 16.0496 11.5442 15.676 11.6423C14.3999 11.9754 9.5497 11.9989 8.87755 12H8.72135C8.38142 12 6.97554 11.9936 5.50144 11.9445L5.31443 11.9381L5.21873 11.9338L5.03061 11.9263L4.8425 11.9189C3.62143 11.8665 2.45865 11.7822 1.92292 11.6412C1.54944 11.5432 1.20905 11.3517 0.935855 11.0858C0.662663 10.8199 0.466261 10.4889 0.366323 10.1262C0.244215 9.68093 0.16281 9.07341 0.107807 8.46268L0.0990062 8.35056L0.0902056 8.23952C0.0359146 7.51604 0.00583022 6.79104 0 6.06566L0 5.93434C0.00220014 5.70478 0.0110007 4.91147 0.0704044 4.03595L0.0781049 3.92597L0.0814051 3.87045L0.0902056 3.75941L0.114407 3.4818L0.125408 3.37076C0.178211 2.81662 0.256316 2.27849 0.367423 1.87383C0.467192 1.51086 0.66352 1.17972 0.936723 0.913621C1.20993 0.647517 1.5504 0.455798 1.92402 0.357683C2.45975 0.218881 3.62253 0.133464 4.8436 0.0800782L5.03061 0.0726043L5.21983 0.0661982L5.31443 0.0629951L5.50254 0.0555211C6.54949 0.022822 7.59686 0.00466895 8.64434 0.00106776H8.85665V0ZM7.04044 3.42735V8.57158L11.6134 6.00053L7.04044 3.42735Z" fill="#FF0033"/>
</svg>

<svg xmlns="http://www.w3.org/2000/svg" width="18" height="12" fill="none"><path fill="#F03" d="M8.857 0h.098c.904.003 5.486.035 6.721.358.373.098.714.29.987.556s.47.597.57.96c.11.406.189.943.242 1.497l.01.11.025.278.009.111c.071.976.08 1.89.081 2.09v.08a33 33 0 0 1-.09 2.2l-.009.112-.01.11c-.055.611-.136 1.218-.258 1.664a2.13 2.13 0 0 1-.57.96 2.2 2.2 0 0 1-.987.556C14.4 11.975 9.55 12 8.878 12H8.72c-.34 0-1.745-.006-3.22-.056l-.187-.006-.095-.004-.188-.008-.188-.007c-1.222-.053-2.384-.137-2.92-.278a2.2 2.2 0 0 1-.987-.555 2.13 2.13 0 0 1-.57-.96C.244 9.681.163 9.073.108 8.463L.099 8.35.09 8.24A33 33 0 0 1 0 6.066v-.132c.002-.23.011-1.023.07-1.898l.008-.11.003-.056.01-.11.023-.278.011-.111c.053-.554.131-1.093.242-1.497.1-.363.297-.694.57-.96s.613-.458.987-.556C2.46.218 3.623.133 4.844.08L5.03.073l.19-.007.094-.003.189-.007Q7.073.006 8.644 0zM7.04 3.427v5.145L11.613 6z"/></svg>
